X: 6101
T: Captain Campbell
R: strathspey
M: 4/4
K: Adorian
A>G|"Am"[E/A/][A3/2A3/2][A3/2A3/2]B/ "C"{cB}c>AB<G|"G"[D/G,/][G3/2G,3/2][G3/2G,3/2]A/ {A}B>d c/B/A/G/|"Am"[E/A/][A3/2A3/2][A3/2A3/2]B/ "C"{cB}c>Bc<e|"G"d<B{ga}g>B "Am"{AB}[A2A2] A>G|
"Am"[E/A/][A3/2A3/2][A3/2A3/2]B/ "C"{cB}c>AB<G|"G"[D/G,/][G3/2G,3/2][G3/2G,3/2]A/ {A}B>d c/B/A/G/|"Am"[E/A/][A3/2A3/2][A3/2A3/2]B/ "C"{cB}c>Bc<e|"G"d<B{ga}g>B "Am"{AB}[A2A2] A>B||
"Am"A<a{b}a>g "C"{ef}[e3/2e3/2]d/c<e|"G"{A/B/c/}d>e{a}g>e d/c/B/A/ G>B|"Am"A<a{b}a>g "C"{ef}[e3/2e3/2]d/c<e|"G"d<B{ga}g>B "Am"{AB}[A2A2] A>B|
"Am"A<a{b}a>g "C"{ef}[e3/2e3/2]d/c<e|"G"{A/B/c/}d>e{a}g>e d/c/B/A/ G>B|"Am"{cB}c>A"G"d>B "C"e>dc<e|"G"d<B{ga}g>B "Am"{AB}[A2A2]||

